docs/.vuepress/public/img/link/hertzbeat.svg

<svg width="199" height="53" viewBox="0 0 199 53" fill="none" xmlns="http://www.w3.org/2000/svg">
<path d="M73.0527 24.2471V26.4702H61.8945V24.2471H73.0527ZM62.3193 15.3828V36H59.5864V15.3828H62.3193ZM75.4316 15.3828V36H72.7129V15.3828H75.4316ZM86.25 36.2832C85.1833 36.2832 84.2157 36.1038 83.3472 35.7451C82.4881 35.377 81.7471 34.8625 81.124 34.2017C80.5104 33.5409 80.0384 32.7573 79.708 31.8511C79.3776 30.9448 79.2124 29.9536 79.2124 28.8774V28.2827C79.2124 27.0366 79.3965 25.9274 79.7646 24.9551C80.1328 23.9733 80.6331 23.1426 81.2656 22.4629C81.8981 21.7832 82.6156 21.2687 83.418 20.9194C84.2204 20.5701 85.0511 20.3955 85.9102 20.3955C87.0052 20.3955 87.9492 20.5843 88.7422 20.9619C89.5446 21.3395 90.2007 21.8682 90.7104 22.5479C91.2202 23.2181 91.5978 24.0111 91.8433 24.9268C92.0887 25.833 92.2114 26.8242 92.2114 27.9004V29.0757H80.77V26.9375H89.5918V26.7393C89.554 26.0596 89.4124 25.3988 89.167 24.7568C88.931 24.1149 88.5534 23.5863 88.0342 23.1709C87.515 22.7555 86.807 22.5479 85.9102 22.5479C85.3154 22.5479 84.7679 22.6753 84.2676 22.9302C83.7673 23.1756 83.3377 23.5438 82.979 24.0347C82.6203 24.5256 82.3418 25.125 82.1436 25.833C81.9453 26.541 81.8462 27.3576 81.8462 28.2827V28.8774C81.8462 29.6043 81.9453 30.2887 82.1436 30.9307C82.3512 31.5632 82.6486 32.1201 83.0356 32.6016C83.4321 33.083 83.9089 33.4606 84.4658 33.7344C85.0322 34.0081 85.6742 34.145 86.3916 34.145C87.3167 34.145 88.1003 33.9562 88.7422 33.5786C89.3841 33.201 89.9458 32.696 90.4272 32.0635L92.0132 33.3237C91.6828 33.8241 91.2627 34.3008 90.7529 34.7539C90.2432 35.207 89.6154 35.5752 88.8696 35.8584C88.1333 36.1416 87.2601 36.2832 86.25 36.2832ZM97.8896 23.0859V36H95.27V20.6787H97.8188L97.8896 23.0859ZM102.676 20.5938L102.662 23.0293C102.444 22.9821 102.237 22.9538 102.039 22.9443C101.85 22.9255 101.633 22.916 101.387 22.916C100.783 22.916 100.25 23.0104 99.7871 23.1992C99.3245 23.388 98.9328 23.6523 98.6118 23.9922C98.2909 24.332 98.036 24.738 97.8472 25.21C97.6678 25.6725 97.5498 26.1823 97.4932 26.7393L96.7568 27.1641C96.7568 26.2389 96.8465 25.3704 97.0259 24.5586C97.2147 23.7467 97.5026 23.0293 97.8896 22.4062C98.2767 21.7738 98.7676 21.2829 99.3623 20.9336C99.9665 20.5749 100.684 20.3955 101.515 20.3955C101.703 20.3955 101.921 20.4191 102.166 20.4663C102.411 20.5041 102.581 20.5465 102.676 20.5938ZM112.22 20.6787V22.6895H103.936V20.6787H112.22ZM106.74 16.9546H109.359V32.2051C109.359 32.7243 109.44 33.116 109.6 33.3804C109.761 33.6447 109.968 33.8193 110.223 33.9043C110.478 33.9893 110.752 34.0317 111.044 34.0317C111.262 34.0317 111.488 34.0129 111.724 33.9751C111.97 33.9279 112.154 33.8901 112.276 33.8618L112.291 36C112.083 36.0661 111.809 36.1274 111.469 36.1841C111.139 36.2502 110.738 36.2832 110.266 36.2832C109.624 36.2832 109.034 36.1558 108.496 35.9009C107.958 35.646 107.528 35.2212 107.207 34.6265C106.896 34.0223 106.74 33.2104 106.74 32.1909V16.9546ZM126.706 33.8477V36H115.562V33.8477H126.706ZM126.295 22.5337L116.156 36H114.556V34.0742L124.624 20.6787H126.295V22.5337ZM125.134 20.6787V22.8452H114.669V20.6787H125.134ZM137.425 26.3569H132.2L132.171 24.1621H136.915C137.699 24.1621 138.383 24.0299 138.968 23.7656C139.554 23.5013 140.007 23.1237 140.328 22.6328C140.658 22.1325 140.823 21.5378 140.823 20.8486C140.823 20.0934 140.677 19.4798 140.384 19.0078C140.101 18.5264 139.662 18.1771 139.067 17.96C138.482 17.7334 137.736 17.6201 136.83 17.6201H132.809V36H130.076V15.3828H136.83C137.887 15.3828 138.831 15.4914 139.662 15.7085C140.493 15.9162 141.196 16.2466 141.772 16.6997C142.357 17.1434 142.801 17.7098 143.103 18.3989C143.405 19.0881 143.556 19.9141 143.556 20.877C143.556 21.7266 143.339 22.4959 142.905 23.1851C142.471 23.8647 141.866 24.4217 141.092 24.856C140.328 25.2902 139.431 25.5687 138.402 25.6914L137.425 26.3569ZM137.297 36H131.124L132.667 33.7769H137.297C138.166 33.7769 138.902 33.6258 139.506 33.3237C140.12 33.0216 140.587 32.5968 140.908 32.0493C141.229 31.4924 141.39 30.8363 141.39 30.0811C141.39 29.3164 141.253 28.6556 140.979 28.0986C140.705 27.5417 140.276 27.1121 139.69 26.8101C139.105 26.508 138.35 26.3569 137.425 26.3569H133.531L133.559 24.1621H138.883L139.464 24.9551C140.455 25.04 141.295 25.3232 141.984 25.8047C142.674 26.2767 143.197 26.8809 143.556 27.6172C143.924 28.3535 144.108 29.1654 144.108 30.0527C144.108 31.3366 143.825 32.4222 143.259 33.3096C142.702 34.1875 141.914 34.8577 140.894 35.3203C139.875 35.7734 138.676 36 137.297 36ZM154.105 36.2832C153.039 36.2832 152.071 36.1038 151.203 35.7451C150.344 35.377 149.603 34.8625 148.979 34.2017C148.366 33.5409 147.894 32.7573 147.563 31.8511C147.233 30.9448 147.068 29.9536 147.068 28.8774V28.2827C147.068 27.0366 147.252 25.9274 147.62 24.9551C147.988 23.9733 148.489 23.1426 149.121 22.4629C149.754 21.7832 150.471 21.2687 151.273 20.9194C152.076 20.5701 152.907 20.3955 153.766 20.3955C154.861 20.3955 155.805 20.5843 156.598 20.9619C157.4 21.3395 158.056 21.8682 158.566 22.5479C159.076 23.2181 159.453 24.0111 159.699 24.9268C159.944 25.833 160.067 26.8242 160.067 27.9004V29.0757H148.625V26.9375H157.447V26.7393C157.41 26.0596 157.268 25.3988 157.022 24.7568C156.786 24.1149 156.409 23.5863 155.89 23.1709C155.37 22.7555 154.662 22.5479 153.766 22.5479C153.171 22.5479 152.623 22.6753 152.123 22.9302C151.623 23.1756 151.193 23.5438 150.834 24.0347C150.476 24.5256 150.197 25.125 149.999 25.833C149.801 26.541 149.702 27.3576 149.702 28.2827V28.8774C149.702 29.6043 149.801 30.2887 149.999 30.9307C150.207 31.5632 150.504 32.1201 150.891 32.6016C151.288 33.083 151.764 33.4606 152.321 33.7344C152.888 34.0081 153.53 34.145 154.247 34.145C155.172 34.145 155.956 33.9562 156.598 33.5786C157.24 33.201 157.801 32.696 158.283 32.0635L159.869 33.3237C159.538 33.8241 159.118 34.3008 158.608 34.7539C158.099 35.207 157.471 35.5752 156.725 35.8584C155.989 36.1416 155.116 36.2832 154.105 36.2832ZM172.16 33.3804V25.4932C172.16 24.889 172.037 24.3651 171.792 23.9214C171.556 23.4683 171.197 23.119 170.715 22.8735C170.234 22.6281 169.639 22.5054 168.931 22.5054C168.27 22.5054 167.69 22.6187 167.189 22.8452C166.699 23.0718 166.312 23.3691 166.028 23.7373C165.755 24.1055 165.618 24.502 165.618 24.9268H162.998C162.998 24.3792 163.14 23.8364 163.423 23.2983C163.706 22.7603 164.112 22.2741 164.641 21.8398C165.179 21.3962 165.821 21.0469 166.566 20.792C167.322 20.5277 168.162 20.3955 169.087 20.3955C170.201 20.3955 171.183 20.5843 172.032 20.9619C172.891 21.3395 173.562 21.9106 174.043 22.6753C174.534 23.4305 174.779 24.3792 174.779 25.5215V32.6582C174.779 33.168 174.822 33.7108 174.907 34.2866C175.001 34.8625 175.138 35.3581 175.317 35.7734V36H172.584C172.452 35.6979 172.348 35.2967 172.273 34.7964C172.197 34.2866 172.16 33.8146 172.16 33.3804ZM172.613 26.7109L172.641 28.5518H169.993C169.247 28.5518 168.582 28.6131 167.997 28.7358C167.411 28.8491 166.92 29.0238 166.524 29.2598C166.127 29.4958 165.825 29.7931 165.618 30.1519C165.41 30.5011 165.306 30.9118 165.306 31.3838C165.306 31.8652 165.415 32.3042 165.632 32.7007C165.849 33.0972 166.175 33.4134 166.609 33.6494C167.053 33.876 167.595 33.9893 168.237 33.9893C169.04 33.9893 169.748 33.8193 170.361 33.4795C170.975 33.1396 171.461 32.7243 171.82 32.2334C172.188 31.7425 172.386 31.2658 172.415 30.8032L173.533 32.0635C173.467 32.46 173.288 32.8989 172.995 33.3804C172.702 33.8618 172.311 34.3244 171.82 34.7681C171.338 35.2023 170.763 35.5658 170.092 35.8584C169.431 36.1416 168.686 36.2832 167.855 36.2832C166.817 36.2832 165.906 36.0802 165.122 35.6743C164.348 35.2684 163.744 34.7256 163.31 34.0459C162.885 33.3568 162.672 32.5874 162.672 31.7378C162.672 30.9165 162.833 30.1943 163.154 29.5713C163.475 28.9388 163.937 28.4149 164.542 27.9995C165.146 27.5747 165.873 27.2537 166.722 27.0366C167.572 26.8195 168.521 26.7109 169.568 26.7109H172.613ZM185.314 20.6787V22.6895H177.031V20.6787H185.314ZM179.834 16.9546H182.454V32.2051C182.454 32.7243 182.534 33.116 182.695 33.3804C182.855 33.6447 183.063 33.8193 183.318 33.9043C183.573 33.9893 183.847 34.0317 184.139 34.0317C184.356 34.0317 184.583 34.0129 184.819 33.9751C185.064 33.9279 185.248 33.8901 185.371 33.8618L185.385 36C185.178 36.0661 184.904 36.1274 184.564 36.1841C184.234 36.2502 183.832 36.2832 183.36 36.2832C182.718 36.2832 182.128 36.1558 181.59 35.9009C181.052 35.646 180.623 35.2212 180.302 34.6265C179.99 34.0223 179.834 33.2104 179.834 32.1909V16.9546Z" fill="#B421CC"/>
<path fill-rule="evenodd" clip-rule="evenodd" d="M24.001 0C10.748 0 0 10.745 0 24.001C0 33.826 5.90999 42.271 14.369 45.982C14.301 44.308 14.357 42.293 14.784 40.47C15.246 38.522 17.106 27.5 17.106 27.5C17.106 27.5 17.106 25.861 17.106 23.595C17.106 20.039 19.434 21.819 22 21.819L25.5 23C32 23 42.5 23 42.5 23C42.5 23 32.943 15.5 26.5 15.5C19.221 15.5 18.5 15.5 18.5 15.5C18.5 17.594 13.5 18 13.5 18L11.5 15.5L9 14.5C9 7.684 13.52 8.069 24.922 8.069C34.086 8.069 48 14.5 42.5 23C42.5 23 33.219 23 25.5 23C22.912 23 28.336 31.09 27.5 29.5C27.5 29.5 28 33 22 37C21.492 38.85 18.111 45.575 17.2 47.015C19.359 47.653 21.64 48 24.001 48C37.255 48 48 37.255 48 24.001C48 10.745 37.255 0 24.001 0Z" fill="#B421CC"/>
</svg>

<svg fill="none" viewBox="0 0 199 53"><path fill="#B421CC" d="M73.053 24.247v2.223H61.895v-2.223h11.158zm-10.734-8.864V36h-2.733V15.383h2.733zm13.113 0V36h-2.72V15.383h2.72zm10.818 20.9c-1.067 0-2.034-.18-2.903-.538a6.58 6.58 0 01-2.223-1.543 6.866 6.866 0 01-1.416-2.35c-.33-.907-.496-1.898-.496-2.975v-.594c0-1.246.184-2.356.553-3.328.368-.982.868-1.812 1.5-2.492a6.43 6.43 0 012.153-1.544 6.182 6.182 0 012.492-.524c1.095 0 2.04.19 2.832.567a5.162 5.162 0 011.968 1.586c.51.67.888 1.463 1.133 2.379.246.906.368 1.897.368 2.973v1.176H80.77v-2.139h8.822v-.198a6.537 6.537 0 00-.425-1.982 3.564 3.564 0 00-1.133-1.586c-.519-.415-1.227-.623-2.124-.623a3.56 3.56 0 00-2.931 1.487c-.359.49-.637 1.09-.835 1.798-.199.708-.298 1.525-.298 2.45v.594c0 .727.1 1.412.298 2.054.207.632.505 1.19.892 1.67.396.482.873.86 1.43 1.133.566.274 1.208.411 1.926.411.925 0 1.708-.189 2.35-.566a5.82 5.82 0 001.685-1.516l1.586 1.26c-.33.501-.75.978-1.26 1.43-.51.454-1.138.822-1.883 1.105-.737.284-1.61.425-2.62.425zm11.64-13.197V36h-2.62V20.679h2.549l.07 2.407zm4.786-2.492l-.014 2.435a3.806 3.806 0 00-.623-.085 6.656 6.656 0 00-.652-.028c-.604 0-1.137.094-1.6.283a3.315 3.315 0 00-1.175.793c-.321.34-.576.746-.765 1.218-.18.462-.297.972-.354 1.53l-.736.424c0-.925.09-1.794.269-2.605.189-.812.477-1.53.864-2.153a4.23 4.23 0 011.472-1.472c.605-.36 1.322-.539 2.153-.539.188 0 .406.024.651.071.245.038.415.08.51.128zm9.544.085v2.01h-8.284v-2.01h8.284zm-5.48-3.724h2.619v15.25c0 .52.081.911.241 1.175.161.265.368.44.623.524.255.085.529.128.821.128.218 0 .444-.02.68-.057.246-.047.43-.085.552-.113l.015 2.138a6.149 6.149 0 01-.822.184c-.33.066-.731.1-1.203.1a4.08 4.08 0 01-1.77-.383c-.538-.255-.968-.68-1.289-1.275-.311-.604-.467-1.416-.467-2.435V16.955zm19.966 16.893V36h-11.144v-2.152h11.144zm-.411-11.314L116.156 36h-1.6v-1.926l10.068-13.395h1.671v1.855zm-1.161-1.855v2.166h-10.465V20.68h10.465zm12.291 5.678H132.2l-.029-2.195h4.744c.784 0 1.468-.132 2.053-.396.586-.265 1.039-.642 1.36-1.133.33-.5.495-1.095.495-1.784 0-.756-.146-1.37-.439-1.841-.283-.482-.722-.83-1.317-1.048-.585-.227-1.331-.34-2.237-.34h-4.021V36h-2.733V15.383h6.754c1.057 0 2.001.108 2.832.326.831.207 1.534.538 2.11.99a4.221 4.221 0 011.331 1.7c.302.69.453 1.515.453 2.478a4.24 4.24 0 01-.651 2.308c-.434.68-1.039 1.237-1.813 1.671-.764.434-1.661.713-2.69.835l-.977.666zM137.297 36h-6.173l1.543-2.223h4.63c.869 0 1.605-.151 2.209-.453.614-.302 1.081-.727 1.402-1.275.321-.557.482-1.213.482-1.968 0-.765-.137-1.425-.411-1.982a2.837 2.837 0 00-1.289-1.289c-.585-.302-1.34-.453-2.265-.453h-3.894l.028-2.195h5.324l.581.793c.991.085 1.831.368 2.52.85a4.613 4.613 0 011.572 1.812c.368.736.552 1.548.552 2.436 0 1.284-.283 2.37-.849 3.257-.557.877-1.345 1.548-2.365 2.01-1.019.453-2.218.68-3.597.68zm16.808.283c-1.066 0-2.034-.18-2.902-.538a6.593 6.593 0 01-2.224-1.543 6.885 6.885 0 01-1.416-2.35c-.33-.907-.495-1.898-.495-2.975v-.594c0-1.246.184-2.356.552-3.328.368-.982.869-1.812 1.501-2.492a6.438 6.438 0 012.152-1.544 6.188 6.188 0 012.493-.524c1.095 0 2.039.19 2.832.567a5.167 5.167 0 011.968 1.586c.51.67.887 1.463 1.133 2.379.245.906.368 1.897.368 2.973v1.176h-11.442v-2.139h8.822v-.198a6.496 6.496 0 00-.425-1.982 3.564 3.564 0 00-1.132-1.586c-.52-.415-1.228-.623-2.124-.623a3.564 3.564 0 00-2.932 1.487c-.358.49-.637 1.09-.835 1.798-.198.708-.297 1.525-.297 2.45v.594c0 .727.099 1.412.297 2.054.208.632.505 1.19.892 1.67.397.482.873.86 1.43 1.133.567.274 1.209.411 1.926.411.925 0 1.709-.189 2.351-.566a5.826 5.826 0 001.685-1.516l1.586 1.26a7.294 7.294 0 01-1.261 1.43c-.509.454-1.137.822-1.883 1.105-.736.284-1.609.425-2.62.425zm18.055-2.903v-7.887c0-.604-.123-1.128-.368-1.572a2.41 2.41 0 00-1.077-1.047c-.481-.246-1.076-.369-1.784-.369-.661 0-1.241.114-1.742.34-.49.227-.877.524-1.161.892a1.96 1.96 0 00-.41 1.19h-2.62c0-.548.142-1.09.425-1.629a4.758 4.758 0 011.218-1.458c.538-.444 1.18-.793 1.925-1.048.756-.264 1.596-.397 2.521-.397 1.114 0 2.096.19 2.945.567a4.41 4.41 0 012.011 1.713c.491.755.736 1.704.736 2.846v7.137c0 .51.043 1.053.128 1.629a6.36 6.36 0 00.41 1.486V36h-2.733c-.132-.302-.236-.703-.311-1.204a9.64 9.64 0 01-.113-1.416zm.453-6.67l.028 1.842h-2.648c-.746 0-1.411.061-1.996.184-.586.113-1.077.288-1.473.524a2.48 2.48 0 00-.906.892c-.208.35-.312.76-.312 1.232 0 .481.109.92.326 1.317.217.396.543.712.977.948.444.227.986.34 1.628.34.803 0 1.511-.17 2.124-.51.614-.34 1.1-.755 1.459-1.246.368-.49.566-.967.595-1.43l1.118 1.26c-.066.397-.245.836-.538 1.317a6.343 6.343 0 01-2.903 2.478c-.661.284-1.406.425-2.237.425-1.038 0-1.949-.203-2.733-.609-.774-.406-1.378-.948-1.812-1.628a4.31 4.31 0 01-.638-2.308c0-.822.161-1.544.482-2.167A4.177 4.177 0 01164.542 28c.604-.424 1.331-.745 2.18-.962.85-.217 1.799-.326 2.846-.326h3.045zm12.701-6.031v2.01h-8.283v-2.01h8.283zm-5.48-3.724h2.62v15.25c0 .52.08.911.241 1.175.16.265.368.44.623.524.255.085.529.128.821.128.217 0 .444-.02.68-.057.245-.047.429-.085.552-.113l.014 2.138a6.093 6.093 0 01-.821.184c-.33.066-.732.1-1.204.1a4.08 4.08 0 01-1.77-.383c-.538-.255-.967-.68-1.288-1.275-.312-.604-.468-1.416-.468-2.435V16.955z"/><path fill="#B421CC" fill-rule="evenodd" d="M24.001 0C10.748 0 0 10.745 0 24.001c0 9.825 5.91 18.27 14.369 21.981-.068-1.674-.012-3.689.415-5.512.462-1.948 2.322-12.97 2.322-12.97v-3.905c0-3.556 2.328-1.776 4.894-1.776L25.5 23h17s-9.557-7.5-16-7.5h-8c0 2.094-5 2.5-5 2.5l-2-2.5-2.5-1c0-6.816 4.52-6.431 15.922-6.431C34.086 8.069 48 14.5 42.5 23h-17c-2.588 0 2.836 8.09 2 6.5 0 0 .5 3.5-5.5 7.5-.508 1.85-3.889 8.575-4.8 10.015 2.159.638 4.44.985 6.801.985C37.255 48 48 37.255 48 24.001 48 10.745 37.255 0 24.001 0z" clip-rule="evenodd"/></svg>
